img/faq_arrow.svg

<svg xmlns="http://www.w3.org/2000/svg" width="13" height="20" viewBox="0 0 13 20">
  <path fill="#87C849" d="M0.958787879,19.8868693 C0.622506552,19.8870804 0.321243967,19.6790098 0.202370479,19.3644398 C0.0834969915,19.0498698 0.171863171,18.6945616 0.424242424,18.4723233 L10.08,9.96909091 L0.424242424,1.46565656 C0.0892454733,1.17065841 0.0568200415,0.659946461 0.351818194,0.324949506 C0.646816345,-0.0100474507 1.15752829,-0.0424728933 1.49252525,0.252525253 L11.8369697,9.3626263 C12.0112365,9.51596376 12.1111065,9.73686642 12.1111065,9.96898994 C12.1111065,10.2011134 12.0112365,10.422016 11.8369697,10.5753535 L1.49252525,19.6850505 C1.3389899,19.8204041 1.14828283,19.8868693 0.958787879,19.8868693 L0.958787879,19.8868693 Z"/>
</svg>

<svg height="20" viewBox="0 0 13 20" width="13" xmlns="http://www.w3.org/2000/svg"><path d="m.95878788 19.8868693c-.33628133.0002111-.63754391-.2078595-.7564174-.5224295s-.03050731-.6698782.22187194-.8921165l9.65575758-8.50323239-9.65575758-8.50343435c-.33499695-.29499815-.36742238-.8057101-.07242423-1.14070705.29499815-.33499696.8057101-.3674224 1.14070706-.07242426l10.34444445 9.11010105c.1742668.15333746.2741368.37424012.2741368.60636364 0 .23212346-.09987.45302606-.2741368.60636356l-10.34444445 9.109697c-.15353535.1353536-.34424242.2018188-.53373737.2018188z" fill="#87c849"/></svg>
